X: 10631
T: FLOWERS OF EDINBURGH
C:
%R: reel
B: Elias Howe "The Musician's Companion" Part 1 1842 p.63 #1
S: http://imslp.org/wiki/The_Musician's_Companion_(Howe,_Elias)
Z: 2015 John Chambers <jc:trillian.mit.edu>
M: C|
L: 1/8
K: G
% - - - - - - - - - - - - - - - - - - - - - - - - -
A2 |\
DEFD GFGA | BGBd cBAG | F2E2 DEFG | AFDF E4 |\
DEFD GFGA | BGBd efge | dcBA GFGA | B2G2 G2 :|
|: d2 |\
gfga b2g2 | fefg a2f2 | edef gfed | B2e2 e2g2 |\
dBGB d2d2 | edef gfed | cBAG EFGA | B2G2 G2 :|
% - - - - - - - - - - - - - - - - - - - - - - - - -


